!!!COM: Mozart
!!!OTL: Zwolf Variationen in C uber ein Menuett von Johann Christian Fischer 
!!!Variation: Variation 11c
!!!OTL: Zwolf Variationen in C uber ein Menuett von Johann Christian Fischer
**function	**harm	**comments	**kern	**kern
*M3/4	*M3/4	*	*staff2	*staff1
*C:	*C:	*	*clefF4	*clefG2
*tb96	*	*	*k[]	*k[]
*	*	*	*M3/4	*M3/4
=-	=-	=-	=-	=-
2.D	2.V	.	4GG	8cc#
.	.	.	.	4dd
.	.	.	4G 4B	.
.	.	.	.	16eeLL
.	.	.	.	16ddJJ
.	.	.	4G 4B 4d	16ccLL
.	.	.	.	16b
.	.	.	.	16a
.	.	.	.	16gJJ
=	=	=	=293	=293
2.D	2.I64	.	4G 4B 4d#	(4dd#
.	.	.	4G 4c 4e	8ee)
.	.	.	.	8r
.	.	.	4G 4c# 4e	24r
.	.	.	.	24ggLL
.	.	.	.	24ffJ
.	.	.	.	24eeL
.	.	.	.	24ff
.	.	.	.	24ggJJ
=	=	=	=294	=294
2.D	2.V7	.	4G 4c# 4e	(4ee
.	.	.	[4G 4d 4f	4ff)
.	.	.	4G] 4d# 4f#	8r
.	.	.	.	8ff#
*	*	*	*clefG2	*
=	=	=	=295	=295
2T	2I	T	4c 4e 4g	4.gg
.	.	.	4c 4e 4g	.
.	.	.	.	16aaLL
.	.	.	.	16bbJJ
4T	4IV64	P	4c 4f 4a	16dddLL
.	.	.	.	16ccc
.	.	.	.	16bbL
.	.	.	.	16aaJJ
=	=	=	=296	=296
2T	2I	T	4c 4e 4g	8ff#
.	.	.	.	4gg
.	.	.	4c 4e 4g	.
.	.	.	.	16aaLL
.	.	.	.	16bbJJ
4T	4IV64	P	4c 4f 4a	16ddd
.	.	.	.	16ccc
.	.	.	.	16bbL
.	.	.	.	16aaJJ)
=	=	=	=297	=297
4T	4I6	T	4e 4g	(8ggL
.	.	.	.	8ccJ
4T	4V43	D	4d 4g	8bL
.	.	.	.	8ffJ)
4T	4I	T	4c 4g	24r
.	.	.	.	24eeLL
.	.	.	.	24ffJ
.	.	.	.	24ggL
.	.	.	.	24ff
.	.	.	.	24eeJJ
=	=	=	=298	=298
2T	2V	D	4G 4B 4g	8ddL
.	.	.	.	8bJ
*	*	*	*clefF4	*
.	.	.	4G 4B 4d	8aL
.	.	.	.	8gJ
4T	4V2	D	4F 4B 4d	32r
.	.	.	.	32g'LLL
.	.	.	.	32a'
.	.	.	.	32b'JJ
.	.	.	.	32cc'LL
.	.	.	.	32dd'
.	.	.	.	32ee'
.	.	.	.	32ff'JJJ
=	=	=	=299	=299
4T	4I6	T	4E 4G 4c	(8ggL
.	.	.	.	8ccJ
4T	4V43	D	4D 4G 4B	8bL
.	.	.	.	8ffJ)
4T	4I	T	4C 4G 4c	16.r
.	.	.	.	32eeL
.	.	.	.	8eeJ
=	=	=	=300	=300
*	*	*	*^	*
2D	2C64	.	[4e	2G	[4gg
.	.	.	8.eL]	.	8.ggL]
.	.	.	16cJk	.	16eeJk
4D	4V	.	8B	4r	8dd
.	.	.	8r	.	8r
*	*	*	*v	*v	*
=	=	=	=301	=301
*-	*-	*-	*-	*-
